X: 1
T:Long Morris
M:4/4
L:1/8
K:G
d|g3ag2fe|defga2f2|g2d2e2dc|B4G2||AB|c2e2e2dc|B2d2d2cB|A2B2c2dc|B4G2AB|c
2e2e2dc|B2ddg4|fgaf d2 ef|g4g2||
